static/images/scale1.svg

<svg height="86" viewBox="0 0 86 86" width="86" xmlns="http://www.w3.org/2000/svg" xmlns:xlink="http://www.w3.org/1999/xlink"><linearGradient id="a" x1="0%" x2="149.460671%" y1="0%" y2="71.875%"><stop offset="0" stop-color="#00eaf8"/><stop offset="1" stop-color="#6d42ef"/></linearGradient><g fill="none"><circle cx="43" cy="43" fill="#fff" r="43"/><path d="m47.8588564 49.5828532c.4757889-.1322878.9989933.0665087 1.2576439.5131351l.2725012.4705482 7.1997586 12.3707065.6772256-3.0520454c.1325313-.5972777.7249923-.9742137 1.3232986-.8419102s.9758915.7237459.8433602 1.3210236l-1.2796887 5.7671593c-.0581484.2622784-.2050163.4821235-.4021604.6350108-.1971779.1528915-.4445376.2387866-.7036869.2332684-.1368412.0025726-.2727255-.0202028-.4005309-.0664419l-5.5928953-1.2296083c-.5984677-.1315742-.9767759-.722556-.8449751-1.3199948.1318008-.5974387.7238004-.9750966 1.3222681-.8435223l3.2591749.7165356-7.079025-12.163265c-2.5886048 1.161578-5.5115498 1.1496455-8.0456124.0592706l-7.0326596 12.0968891 3.2268565-.7094303c.5984676-.1315743 1.1904672.2460836 1.322268.8435223.1318008.5974388-.2465074 1.1884206-.844975 1.3199948l-5.5235598 1.2143648c-.1439082.0583628-.2993197.0863963-.4556354.0812907-.2619392.0089513-.5125886-.0756443-.7124343-.2286474-.1999327-.1530941-.3489636-.3745589-.4076441-.6392371l-1.2796886-5.7671593c-.1325314-.5972777.2450538-1.1887201.8433601-1.3210236s1.1907673.2446325 1.3232987.8419102l.6849755 3.086972 6.9284709-11.917674c-.4134691-.3011926-.8077469-.6371477-1.1784963-1.0072951-3.1959938-3.1908057-3.8465839-8.1267796-1.5861904-12.0342981.6981654-1.2069113 1.6202642-2.2227483 2.6900039-3.0159746l-1.6591876-2.8867627-5.2189276-8.9727001-.6606484 2.9773374c-.1325314.5972777-.7249924.9742137-1.3232987.8419102s-.9758915-.7237459-.8433601-1.3210236l1.2402738-5.5895291c.0204352-.3593712.2156836-.7018901.550823-.8961526.1763712-.102233.3692578-.1505219.5594749-.1499481.0827973-.0008575.1669871.0075854.2512989.0261373l5.7770916 1.2701042c.5984676.1315742.9767758.722556.844975 1.3199948-.1318008.5974387-.7238004.9750966-1.322268.8435223l-3.3279231-.73165 5.3909592 9.2684687 1.6581413 2.8849539c2.0331236-.8978038 4.3623444-1.1183526 6.6265176-.5123632.5045902.1350498.9914069.3022818 1.4578167.4994192l7.0354833-12.1187098-3.2289075.7098812c-.5984677.1315743-1.1904673-.2460836-1.3222681-.8435223-.1318008-.5974388.2465074-1.1884206.8449751-1.3199948l5.5235591-1.2143646c.1439085-.0583631.2993198-.086396.455634-.0812909.2619396-.0089518.5125895.0756437.7124356.2286468.199933.1530941.3489643.3745591.4076448.6392377l1.2796887 5.7671593c.1325313.5972777-.2450539 1.1887201-.8433602 1.3210236s-1.1907673-.2446325-1.3232986-.8419102l-.6844436-3.0845748-6.9155952 11.9122012c2.0709596 1.4572945 3.4886695 3.6262963 3.8868577 6.1903296.0010799.0069536.0021522.01391.0032171.0208694h12.6531743l-2.4698016-2.4655554c-.4503341-.4495599-.4503341-1.1784404 0-1.6280003.4503341-.4495598 1.18047-.4495598 1.630804 0l4.3512291 4.3437483c.2362485.2358423.3485593.5485571.3369326.8574888.0116267.3089316-.1006841.6216465-.3369326.8574888l-4.3512291 4.3437482c-.450334.4495599-1.1804699.4495599-1.630804 0-.4503341-.4495598-.4503341-1.1784404 0-1.6280002l2.4698016-2.4655554h-13.5176345c-.5963933 0-1.0844473-.456498-1.123071-1.0338129-.1099485-.4248734-.1765998-.7531936-.2735703-1.2202984-.5734622-2.7623555-2.7135753-4.8325221-5.6030118-5.6058587-3.3956611-.9088238-6.9794295.5725664-8.7375133 3.6117475-1.7580838 3.039181-1.2520693 6.8782718 1.2337037 9.3600096 2.4857729 2.4817377 6.3314268 2.9872511 9.3760108 1.2324818.112947-.0650978.2325932-.1081196.3539249-.1304063zm-31.8586245-7.3418727c-.0060552-.3022813.106451-.6064897.3375187-.8371601l4.3512291-4.3437483c.450334-.4495598 1.1804699-.4495598 1.630804 0 .4503341.4495599.4503341 1.1784404 0 1.6280003l-2.4698016 2.4655554h8.799333c.7762248 0 1.4054794.4959258 1.4054794 1.1076814 0 .6117555-.6292546 1.1076814-1.4054794 1.1076814h-8.799333l2.4698016 2.4655554c.4503341.4495598.4503341 1.1784404 0 1.6280002-.4503341.4495599-1.18047.4495599-1.630804 0l-4.3512291-4.3437482c-.2310677-.2306705-.3435739-.5348789-.3375187-.8371602-.0001544-.0067616-.0002319-.013538-.0002319-.0203286 0-.0067907.0000775-.0135671.0002319-.0203287z" fill="url(#a)"/></g></svg>

<?xml version="1.0" encoding="UTF-8"?>
<svg width="86px" height="86px" viewBox="0 0 86 86" version="1.1" xmlns="http://www.w3.org/2000/svg" xmlns:xlink="http://www.w3.org/1999/xlink">
    <!-- Generator: sketchtool 46.2 (44496) - http://www.bohemiancoding.com/sketch -->
    <title>8E9D9061-A79B-47DF-885B-970C9759651B</title>
    <desc>Created with sketchtool.</desc>
    <defs>
        <linearGradient x1="0%" y1="0%" x2="149.460671%" y2="71.875%" id="linearGradient-1">
            <stop stop-color="#00EAF8" offset="0%"></stop>
            <stop stop-color="#6D42EF" offset="100%"></stop>
        </linearGradient>
    </defs>
    <g id="Page-1" stroke="none" stroke-width="1" fill="none" fill-rule="evenodd">
        <g id="icons" transform="translate(-432.000000, -1693.000000)" fill-rule="nonzero">
            <g transform="translate(63.000000, 1693.000000)" id="2">
                <g transform="translate(300.000000, 0.000000)">
                    <g id="ic/scale" transform="translate(69.000000, 0.000000)">
                        <circle id="Oval" fill="#FFFFFF" cx="43" cy="43" r="43"></circle>
                        <path d="M47.8588564,49.5828532 C48.3346453,49.4505654 48.8578497,49.6493619 49.1165003,50.0959883 L49.3890015,50.5665365 L56.5887601,62.937243 L57.2659857,59.8851976 C57.398517,59.2879199 57.990978,58.9109839 58.5892843,59.0432874 C59.1875906,59.1755909 59.5651758,59.7670333 59.4326445,60.364311 L58.1529558,66.1314703 C58.0948074,66.3937487 57.9479395,66.6135938 57.7507954,66.7664811 C57.5536175,66.9193726 57.3062578,67.0052677 57.0471085,66.9997495 C56.9102673,67.0023221 56.774383,66.9795467 56.6465776,66.9333076 L51.0536823,65.7036993 C50.4552146,65.5721251 50.0769064,64.9811433 50.2087072,64.3837045 C50.340508,63.7862658 50.9325076,63.4086079 51.5309753,63.5401822 L54.7901502,64.2567178 L47.7111252,52.0934528 C45.1225204,53.2550308 42.1995754,53.2430983 39.6655128,52.1527234 L32.6328532,64.2496125 L35.8597097,63.5401822 C36.4581773,63.4086079 37.0501769,63.7862658 37.1819777,64.3837045 C37.3137785,64.9811433 36.9354703,65.5721251 36.3370027,65.7036993 L30.8134429,66.9180641 C30.6695347,66.9764269 30.5141232,67.0044604 30.3578075,66.9993548 C30.0958683,67.0083061 29.8452189,66.9237105 29.6453732,66.7707074 C29.4454405,66.6176133 29.2964096,66.3961485 29.2377291,66.1314703 L27.9580405,60.364311 C27.8255091,59.7670333 28.2030943,59.1755909 28.8014006,59.0432874 C29.3997069,58.9109839 29.9921679,59.2879199 30.1246993,59.8851976 L30.8096748,62.9721696 L37.7381457,51.0544956 C37.3246766,50.753303 36.9303988,50.4173479 36.5596494,50.0472005 C33.3636556,46.8563948 32.7130655,41.9204209 34.973459,38.0129024 C35.6716244,36.8059911 36.5937232,35.7901541 37.6634629,34.9969278 L36.0042753,32.1101651 L30.7853477,23.137465 L30.1246993,26.1148024 C29.9921679,26.7120801 29.3997069,27.0890161 28.8014006,26.9567126 C28.2030943,26.8244091 27.8255091,26.2329667 27.9580405,25.635689 L29.1983143,20.0461599 C29.2187495,19.6867887 29.4139979,19.3442698 29.7491373,19.1500073 C29.9255085,19.0477743 30.1183951,18.9994854 30.3086122,19.0000592 C30.3914095,18.9992017 30.4755993,19.0076446 30.5599111,19.0261965 L36.3370027,20.2963007 C36.9354703,20.4278749 37.3137785,21.0188567 37.1819777,21.6162955 C37.0501769,22.2137342 36.4581773,22.5913921 35.8597097,22.4598178 L32.5317866,21.7281678 L37.9227458,30.9966365 L39.5808871,33.8815904 C41.6140107,32.9837866 43.9432315,32.7632378 46.2074047,33.3692272 C46.7119949,33.504277 47.1988116,33.671509 47.6652214,33.8686464 L54.7007047,21.7499366 L51.4717972,22.4598178 C50.8733295,22.5913921 50.2813299,22.2137342 50.1495291,21.6162955 C50.0177283,21.0188567 50.3960365,20.4278749 50.9945042,20.2963007 L56.5180633,19.0819361 C56.6619718,19.023573 56.8173831,18.9955401 56.9736973,19.0006452 C57.2356369,18.9916934 57.4862868,19.0762889 57.6861329,19.229292 C57.8860659,19.3823861 58.0350972,19.6038511 58.0937777,19.8685297 L59.3734664,25.635689 C59.5059977,26.2329667 59.1284125,26.8244091 58.5301062,26.9567126 C57.9317999,27.0890161 57.3393389,26.7120801 57.2068076,26.1148024 L56.522364,23.0302276 L49.6067688,34.9424288 C51.6777284,36.3997233 53.0954383,38.5687251 53.4936265,41.1327584 C53.4947064,41.139712 53.4957787,41.1466684 53.4968436,41.1536278 L66.1500179,41.1536278 L63.6802163,38.6880724 C63.2298822,38.2385125 63.2298822,37.509632 63.6802163,37.0600721 C64.1305504,36.6105123 64.8606863,36.6105123 65.3110203,37.0600721 L69.6622494,41.4038204 C69.8984979,41.6396627 70.0108087,41.9523775 69.999182,42.2613092 C70.0108087,42.5702408 69.8984979,42.8829557 69.6622494,43.118798 L65.3110203,47.4625462 C64.8606863,47.9121061 64.1305504,47.9121061 63.6802163,47.4625462 C63.2298822,47.0129864 63.2298822,46.2841058 63.6802163,45.834546 L66.1500179,43.3689906 L52.6323834,43.3689906 C52.0359901,43.3689906 51.5479361,42.9124926 51.5093124,42.3351777 C51.3993639,41.9103043 51.3327126,41.5819841 51.2357421,41.1148793 C50.6622799,38.3525238 48.5221668,36.2823572 45.6327303,35.5090206 C42.2370692,34.6001968 38.6533008,36.081587 36.895217,39.1207681 C35.1371332,42.1599491 35.6431477,45.9990399 38.1289207,48.4807777 C40.6146936,50.9625154 44.4603475,51.4680288 47.5049315,49.7132595 C47.6178785,49.6481617 47.7375247,49.6051399 47.8588564,49.5828532 Z M16.0002319,42.2409805 C15.9941767,41.9386992 16.1066829,41.6344908 16.3377506,41.4038204 L20.6889797,37.0600721 C21.1393137,36.6105123 21.8694496,36.6105123 22.3197837,37.0600721 C22.7701178,37.509632 22.7701178,38.2385125 22.3197837,38.6880724 L19.8499821,41.1536278 L28.6493151,41.1536278 C29.4255399,41.1536278 30.0547945,41.6495536 30.0547945,42.2613092 C30.0547945,42.8730647 29.4255399,43.3689906 28.6493151,43.3689906 L19.8499821,43.3689906 L22.3197837,45.834546 C22.7701178,46.2841058 22.7701178,47.0129864 22.3197837,47.4625462 C21.8694496,47.9121061 21.1393137,47.9121061 20.6889797,47.4625462 L16.3377506,43.118798 C16.1066829,42.8881275 15.9941767,42.5839191 16.0002319,42.2816378 C16.0000775,42.2748762 16,42.2680998 16,42.2613092 C16,42.2545185 16.0000775,42.2477421 16.0002319,42.2409805 Z" id="Combined-Shape" fill="url(#linearGradient-1)"></path>
                    </g>
                </g>
            </g>
        </g>
    </g>
</svg>
